X: 2181
T: Şeytanın Rüyası
C: Muhammet Yıldırır
O: Turkey
F: http://compmusic.upf.edu/node/140
N: nihavent--sazeseri--nimsofyan--seytanin_ruyasi--muhammet_yildirir
N: makam= nihavent
N: form= sazeseri
N: usul= nimsofyan = 2/4
M: 2/4
L: 1/16
K: C _B _e  
Q: 1/4=78
%%MIDI tuningsystem comma53
B2d2 g2z2  | DGBd GBdg  | Bdgb dgbd'  | \
w:   |   |   | 
gbe'g' g'4  | 
w:   | 
(3d'g'd'(3bd'b (3be'c'(3ac'a  | (3bd'b(3gbg (3ac'a(3^faf  | 
w:   |   | 
(3gbg(3ege (3^faf(3dfd  | (3ege(3cec (3dfd(3BdB  | 
w:   |   | 
(3cec(3AcA (3BdB(3GBG  | (3AcA(3^FAF G4  | \
w:   |   | 
g'd'bg dBG2  | 
w:   | 
.G/.A/.B/.G/.D/.^F/.A/.F/ .G/.A/.B/.G/.D/.F/.A/.F/  | \
w:   | 
G/A/B/G/D/^F/A/F/ G/B/d/g/b/d'/^f'/g'/  | 
w:   | 
.G/.A/.B/.G/.D/.^F/.A/.F/ .G/.A/.B/.G/.D/.F/.A/.F/  | \
w:   | 
G/A/B/G/D/^F/A/F/ G/B/d/g/b/d'/^f'/g'/  | 
w:   | 
c/d/e/c/G/=B/d/B/ c/d/e/c/G/B/d/B/  | \
w:   | 
c/d/e/c/G/=B/d/B/ c/e/g/c'/e'/g'/=b'/c'/  | 
w:   | 
_a/g/f/=e/f/_e/d/c/ d/c/_1/4B/A/G/F/E/D/  | \
w:   | 
C/E/G/c/E/G/c/e/ G/c/e/g/c/e/g/c'/  | 
w:   | 
z/=b/c'/^c'/d'/b/_a/f/ b/a/f/d/a/f/d/=B/  | \
w:   | 
C/E/G/c/E/G/c/e/ G/c/e/g/c/e/g/c'/  | 
w:   | 
z/d/e/=e/f/d/=B/_A/ d/B/A/F/B/=A/F/D/  | \
w:   | 
C/E/G/c/E/G/c/e/ G/c/e/g/c/e/g/c'/  | 
w:   | 
z/=b/c'/^c'/d'/b/_a/f/ b/a/f/d/a/f/d/=B/  | \
w:   | 
C/E/G/c/E/G/c/e/ G/c/e/g/c/e/g/c'/  | 
w:   | 
z/d/e/=e/f/d/=B/_A/ d/B/A/F/B/=A/F/D/  | \
w:   | 
C/c'/b/=b/a/_a/g/^f/ =f/=e/_e/d/^c/=c/=B/_B/  | 
w:   | 
A/_A/G/^F/=F/=E/_E/D/ d'/^c'/=c'/=b/_b/a/_a/g/  | \
w:   | 
^f/=f/=e/_e/d/^c/=c/=B/ _B/A/_A/G/g'/^f'/=f'/=e'/  | 
w:   | 
e'/d'/^c'/=c'/=b/_b/a/_a/ g/^f/=f/=e/_e/d/^c/=c/  | \
w:   | 
=B/_B/A/_A/G/B/d/g/ B/d/g/b/g/b/d'/^f'1/4g'1/4  | 
w:   | 
G/A/B/G/D/^F/A/F/ G/A/B/G/D/F/A/F/  | \
w:   | 
G/A/B/G/D/^F/A/F/ G/B/d/g/b/d'/^f'/g'/  | 
w:   | 
c/d/e/c/G/=B/d/B/ c/d/e/c/G/B/d/B/  | \
w:   | 
c/d/e/c/G/=B/d/B/ c/e/g/c'/e'/g'/=b'/c'/  | 
w:   | 
^f/g/a/f/d/e/f/d/ e/f/g/e/c/d/e/c/  | \
w:   | 
d/e/f/d/B/c/d/B/ c/d/e/c/A/B/c/A/  | 
w:   | 
B/c/d/B/G/A/B/G/ A/B/c/A/^F/G/A/F/  | \
w:   | 
c/A/c/e/c/e/^f/e/ fac'e'  | 
w:   | 
G/B/G/B/d/B/d/g/ d/g/b/g/b/d'/g'/d'/  | \
w:   | 
A/c/A/c/e/c/e/^f/ e/f/a/g/a/c'/e'/c'/  | 
w:   | 
c'/e'/c'/a/^f/a/c'/e'/ b/d'/b/g/d/g/b/d'/  | \
w:   | 
a/c'/a/^f/d/f/a/c'/ f/a/f/e/c/e/f/a/  | 
w:   | 
e/^f/e/c/A/c/e/f/ c/e/c/A/^F/A/c/e/  | \
w:   | 
A/c/A/^F/D/F/A/c/ F/A/c/e/A/c/e/^f/  | 
w:   | 
c/e/^f/a/e/f/a/c'/ f/a/c'/e'/a/c'/e'/^f'/  | \
w:   | 
g'/d'/b/g/d'/b/g/d/ b/g/d/B/g/d/B/G/  | 
w:   | 
g'/d'/b/g/d'/b/g/d/ b/g/d/B/g/d/B/G/  | \
w:   | 
c'/e'/c'/a/f/a/f/e/ c/e/c/A/F/A/F/D/  | 
w:   | 
c'/e'/c'/a/f/a/f/e/ c/e/c/A/F/A/F/D/  | \
w:   | 
d'/g'/d'/b/g/b/g/d/ B/d/c/G/E/G/^F/D/  | 
w:   | 
d'/g'/d'/b/g/b/g/d/ B/d/c/G/E/G/^F/D/  | \
w:   | 
c'/e'/c'/a/^f/a/f/e/ c/e/c/A/^F/A/F/C/  | 
w:   | 
c'/e'/c'/a/^f/a/f/e/ c/e/c/A/^F/A/F/C/  | \
w:   | 
D/G/B/d/G/B/d/g/ B/d/g/b/d/g/b/d'/  | 
w:   | 
D/^F/A/c/F/A/c/e/ A/c/e/^f/c/e/f/a/  | \
w:   | 
D/E/D/E/^F/G/F/G/ E/F/E/F/G/A/G/A/  | 
w:  FİNAL  | 
^F/G/F/G/A/B/A/B/ G/A/G/A/B/c/B/c/  | \
w:   | 
A/B/A/B/c/d/c/d/ B/c/B/c/d/e/d/e/  | 
w:   | 
c/d/c/d/e/^f/e/f/ d/e/d/e/f/g/f/g/  | \
w:   | 
e/^f/e/f/g/a/g/a/ f/g/f/g/a/b/a/b/  | 
w:   | 
g/a/g/a/b/c'/b/c'/ a/b/a/b/c'/d'/c'/d'/  | \
w:   | 
b/a/g/^f/g/=f/e/d/ e/d/c/=B/c/_B/A/G/  | 
w:   | 
d'/c'/b/a/b/a/g/^f/ g/=f/e/d/e/d/c/=B/  | \
w:   | 
e'/d'/c'/=b/c'/_b/a/g/ a/g/^f/e/f/e/d/c/  | 
w:   | 
d/c/B/A/G/D/E/^F/ G/A/B/c/dG  | ABc/d/e/^f/ g/d/e/f/g/a/b/c'/  | 
w:   |   | 
d'/g/a/b/c'/d'/e'/^f'/ g/d/e/^f/g/a/b/c'/  | \
w:   | 
d'/g/a/b/c'/d'/e'/^f'/ g'4  | 
w:   | 
DG_1/4Bd GBdg  | _1/4Bdg_1/4b dgbd'  | \
w:   |   | 
g=be'g' g'4  | 
w:   | 
|


